picto/metro-left-de.svg

<svg class="color-immutable" width="24" height="24" viewBox="0 0 24 24" fill="none" xmlns="http://www.w3.org/2000/svg"><path d="M0 22.5V1.5C0 0.675 0.675 0 1.5 0H22.5C23.325 0 24 0.675 24 1.5V22.5C24 23.325 23.325 24 22.5 24H1.5C0.675 24 0 23.325 0 22.5Z" fill="#2D327D"/><path d="M5.64199 3V5.249H5.17599L5.19299 3.54L4.62599 5.249H4.23999L3.66299 3.588L3.67999 5.249H3.21399V3H3.91199L4.44099 4.617L4.94999 3H5.64199Z" fill="white"/><path d="M7.54701 4.726C7.52301 4.82 7.48001 4.909 7.41901 4.992C7.27101 5.194 7.05901 5.295 6.78201 5.295C6.53201 5.295 6.33101 5.216 6.18101 5.058C6.10701 4.981 6.05101 4.888 6.01201 4.78C5.97001 4.664 5.94901 4.543 5.94901 4.417C5.94901 4.173 6.01901 3.968 6.16001 3.802C6.31701 3.616 6.52001 3.524 6.76901 3.524C6.97001 3.524 7.14101 3.586 7.28301 3.71C7.38501 3.799 7.45801 3.909 7.50401 4.04C7.55001 4.171 7.57301 4.335 7.57301 4.533H6.40301C6.40701 4.615 6.42001 4.683 6.44101 4.738C6.50101 4.885 6.61601 4.958 6.78601 4.958C6.86901 4.958 6.93701 4.94 6.98901 4.903C7.04101 4.867 7.08401 4.808 7.11801 4.727H7.54701V4.726ZM7.11701 4.232C7.10901 4.151 7.09101 4.084 7.06201 4.031C7.033 3.978 6.99301 3.937 6.94001 3.906C6.88701 3.875 6.82901 3.86 6.76701 3.86C6.66801 3.86 6.58601 3.893 6.52101 3.96C6.45601 4.026 6.41801 4.117 6.40501 4.232H7.11701Z" fill="white"/><path d="M8.71399 3.566V3.881H8.37999V4.67C8.37999 4.764 8.38899 4.824 8.40599 4.85C8.43199 4.887 8.48899 4.905 8.57799 4.905C8.61299 4.905 8.65799 4.902 8.71299 4.897V5.254C8.61299 5.265 8.51999 5.271 8.43599 5.271C8.30899 5.271 8.21199 5.257 8.14499 5.228C8.04099 5.182 7.97699 5.098 7.95099 4.976C7.93999 4.924 7.93399 4.816 7.93399 4.651V3.881H7.66299V3.566H7.93499V3.172H8.37999V3.566H8.71399Z" fill="white"/><path d="M10.015 3.541V3.973C9.94301 3.96 9.88501 3.953 9.84101 3.953C9.67501 3.953 9.55301 4.023 9.47501 4.162C9.43101 4.241 9.40901 4.371 9.40901 4.553V5.248H8.96301V3.568H9.38801V3.874C9.50901 3.646 9.68501 3.533 9.91601 3.533C9.94401 3.534 9.97701 3.536 10.015 3.541Z" fill="white"/><path d="M11.004 3.523C11.248 3.523 11.447 3.604 11.602 3.766C11.755 3.926 11.831 4.139 11.831 4.406C11.831 4.682 11.749 4.902 11.586 5.066C11.433 5.219 11.234 5.295 10.989 5.295C10.728 5.295 10.519 5.21 10.365 5.04C10.217 4.878 10.144 4.668 10.144 4.409C10.144 4.155 10.216 3.948 10.359 3.789C10.519 3.612 10.733 3.523 11.004 3.523ZM10.981 3.871C10.863 3.871 10.769 3.919 10.7 4.014C10.629 4.11 10.594 4.242 10.594 4.409C10.594 4.582 10.629 4.715 10.699 4.807C10.771 4.9 10.869 4.947 10.993 4.947C11.109 4.947 11.201 4.904 11.268 4.819C11.345 4.725 11.383 4.588 11.383 4.408C11.383 4.24 11.349 4.109 11.281 4.016C11.21 3.919 11.11 3.871 10.981 3.871Z" fill="white"/><path d="M21 20.25H3V21H21V20.25Z" fill="white"/><path d="M3 14.844V19.125C3 19.332 3.168 19.5 3.375 19.5H20.999V14.56H18.598C18.391 14.56 18.223 14.392 18.223 14.185V8.626C18.223 8.419 18.391 8.251 18.598 8.251H20.999V7.576H10.189H4.778C3.94 7.576 3.643 8.036 3.576 8.755C3.577 8.755 3 14.785 3 14.844ZM16.285 8.754C16.285 8.435 16.544 8.177 16.862 8.177C17.181 8.177 17.439 8.436 17.439 8.754V18.172C17.439 18.491 17.18 18.749 16.862 18.749C16.543 18.749 16.285 18.49 16.285 18.172V8.754ZM14.349 8.754C14.349 8.435 14.608 8.177 14.926 8.177C15.245 8.177 15.503 8.436 15.503 8.754V18.172C15.503 18.491 15.244 18.749 14.926 18.749C14.607 18.749 14.349 18.49 14.349 18.172V8.754ZM9.019 8.626C9.019 8.419 9.187 8.251 9.394 8.251H13.192C13.399 8.251 13.567 8.419 13.567 8.626V14.185C13.567 14.392 13.399 14.56 13.192 14.56H9.394C9.187 14.56 9.019 14.392 9.019 14.185V8.626ZM3.705 14.156L4.145 8.626C4.172 8.384 4.313 8.251 4.52 8.251H7.984C8.191 8.251 8.359 8.419 8.359 8.626V14.185C8.359 14.392 8.191 14.56 7.984 14.56L4.05 14.527C3.843 14.527 3.684 14.372 3.705 14.156Z" fill="white"/></svg>

<svg class="color-immutable" width="24" height="24" viewBox="0 0 24 24" fill="none" xmlns="http://www.w3.org/2000/svg"><g clip-path="url(#a)"><path d="M0 22.5v-21C0 .675.675 0 1.5 0h21c.825 0 1.5.675 1.5 1.5v21c0 .825-.675 1.5-1.5 1.5h-21C.675 24 0 23.325 0 22.5Z" fill="#2D327D"/><path d="M5.642 3v2.249h-.466l.017-1.709-.567 1.709H4.24l-.577-1.661.017 1.661h-.466V3h.698l.529 1.617L4.95 3h.692ZM7.547 4.726a.77.77 0 0 1-.128.266c-.148.202-.36.303-.637.303-.25 0-.451-.079-.601-.237a.775.775 0 0 1-.169-.278 1.058 1.058 0 0 1-.063-.363c0-.244.07-.449.211-.615a.76.76 0 0 1 .609-.278.754.754 0 0 1 .735.516c.046.131.069.295.069.493h-1.17c.004.082.017.15.038.205.06.147.175.22.345.22a.343.343 0 0 0 .203-.055.39.39 0 0 0 .129-.176h.429v-.001Zm-.43-.494a.526.526 0 0 0-.055-.201.337.337 0 0 0-.295-.171.328.328 0 0 0-.246.1.446.446 0 0 0-.116.272h.712ZM8.714 3.566v.315H8.38v.789c0 .094.009.154.026.18.026.037.083.055.172.055.035 0 .08-.003.135-.008v.357c-.1.011-.193.017-.277.017a.762.762 0 0 1-.291-.043.332.332 0 0 1-.194-.252 1.954 1.954 0 0 1-.017-.325v-.77h-.271v-.315h.272v-.394h.445v.394h.334ZM10.015 3.541v.432a1.037 1.037 0 0 0-.174-.02.391.391 0 0 0-.366.209c-.044.079-.066.209-.066.391v.695h-.446v-1.68h.425v.306c.121-.228.297-.341.528-.341.028.001.061.003.099.008ZM11.004 3.523a.79.79 0 0 1 .598.243c.153.16.229.373.229.64 0 .276-.082.496-.245.66a.807.807 0 0 1-.597.229c-.261 0-.47-.085-.624-.255-.148-.162-.221-.372-.221-.631 0-.254.072-.461.215-.62.16-.177.374-.266.645-.266Zm-.023.348a.33.33 0 0 0-.281.143.652.652 0 0 0-.106.395c0 .173.035.306.105.398.072.093.17.14.294.14a.332.332 0 0 0 .275-.128c.077-.094.115-.231.115-.411 0-.168-.034-.299-.102-.392a.35.35 0 0 0-.3-.145ZM21 20.25H3V21h18v-.75ZM3 14.844v4.281c0 .207.168.375.375.375h17.624v-4.94h-2.401a.375.375 0 0 1-.375-.375V8.626c0-.207.168-.375.375-.375h2.401v-.675H4.778c-.838 0-1.135.46-1.202 1.179.001 0-.576 6.03-.576 6.089Zm13.285-6.09a.577.577 0 0 1 1.154 0v9.418a.577.577 0 0 1-1.154 0V8.754Zm-1.936 0a.577.577 0 0 1 1.154 0v9.418a.577.577 0 0 1-1.154 0V8.754Zm-5.33-.128c0-.207.168-.375.375-.375h3.798c.207 0 .375.168.375.375v5.559a.375.375 0 0 1-.375.375H9.394a.375.375 0 0 1-.375-.375V8.626Zm-5.314 5.53.44-5.53c.027-.242.168-.375.375-.375h3.464c.207 0 .375.168.375.375v5.559a.375.375 0 0 1-.375.375l-3.934-.033c-.207 0-.366-.155-.345-.371Z" fill="#fff"/></g><defs><clipPath id="a"><path fill="#fff" d="M0 0h24v24H0z"/></clipPath></defs></svg>
